!!!ONB: MCCC : ILB0170_03 : Extracted Monophonic Melody
!!!COM: Beethoven, Ludwig van
!!!OPR: Piano Sonata No.9
!!!OMV: 3
!!!SCT: Op.14 No.1
!!!ODT: 1798///
**kern
*thru
*staff1
*clefG2
*k[f#c#g#d#]
*E:
*M2/2
*MM132
4b
4dd#
=1
2ee
4ee
4ee
=2
4.ff#
8gg#
4aa
4aa
=3
4aa
4aa
4aa
4aa
=4
2aa
16aa
16gg#
16ff#
16ee
16dd#
16cc#
16b
16a
=5
2g#
2d#
=6
4e
2.r
=7
2G#
2D#
=8
4E
4r
4b
4dd#
=9
2ee
4ee
4ee
=10
4.ff#
8gg#
4aa
4aa
=11
4aa
4aa
4aa
4aa
=12
2aa
16aa
16gg#
16ff#
16ee
16dd#
16cc#
16b
16a
=13
2g#
2d#
=14
4e
2.r
=15
2r
16ee
16dd#
16cc#
16b
16a#
16g#
16f#
16e
=16
4d#
4f#
4A#
4f#
=17
2B
16e
16d#
16c#
16B
4r
=18
16D#
16E
16F#
16G#
16A#
16B
16c#
16d#
2e
=19
16f#
16g#
16a#
16b
16cc#
16dd#
16ee
16ff#
2gg#
=20
8aa#
16gg#
16aa#
4bb
8cc#
16b#
16cc#
4ff#
=21
4b
4r
2bb
=22
2b
2f##
=23
2g#
2cc#
=24
2b
8b
8a#
8g#
8a#
=25
2b
4bb
4bb
=26
4b
4b
4f##
4f##
=27
2g#
2cc#
=28
2b
8b
8a#
8g#
8a#
=29
2b
2b
=30
2b
4b
4dd#
=31
2ee
4ee
4ee
=32
4.ff#
8gg#
4aa
4aa
=33
4aa
4aa
4aa
4aa
=34
2aa
16aa
16gg#
16ff#
16ee
16dd#
16cc#
16b
16a
=35
2g#
2d#
=36
4e
2.r
=37
2G#
2D#
=38
4E
4r
4b
4dd#
=39
2ee
4ee
4ee
=40
4.ff#
8gg
4aa
4bb
=41
4ccc
4ccc
4ccc
4ccc
=42
2ccc
16ccc
16bb
16aa
16gg
16ff#
16ee
16dd
16cc
=43
[2gg
16gg]
16ff#
16ee
16dd
16cc#
16b
16a
16g
=44
2dd
16cc
16b
16a
16g
16f#
16e
16d
16c
=45
[2g
16g]
16f#
16e
16d
16c#
16B
16A
16G
=46
16F#
16G
16A
16B
16c
16B
16A
16G
16F#
16G
16F#
16E
16D
16C
16BB
16AA
=47
*k[f#]
12r
12BB
12D
12G
12D
12BB
12B
12D
12G
12B
12G
12D
=48
12d
12G
12B
12d
12B
12G
12g
12d
12B
12f#
12c
12A
=49
12g
12B
12d
12g
12d
12B
12b
12d
12g
12b
12g
12d
=50
12dd
12g
12b
12dd
12b
12g
12dd
12b
12g#
12b
12g#
12d
=51
12a
12c
12e
12a
12e
12c
12cc
12e
12a
12cc
12a
12e
=52
12ee
12a
12cc
12ee
12cc
12a
12aa
12ee
12cc
12gg#
12dd
12b
=53
12aa
12cc
12ee
12aa
12ee
12cc
12ccc
12ee
12aa
12ccc
12aa
12ee
=54
12eee
12aa
12ccc
12eee
12ccc
12aa
12eee
12ccc#
12aa#
12ccc#
12aa#
12ee
=55
12bb
12ff#
12dd
12bb
12gg
12dd
12bb
12gg
12cc#
12aa#
12ff#
12cc#
=56
12bb
12ff#
12dd
12ff#
12dd
12b
12ff#
12dd
12b
12ff#
12cc#
12a#
=57
12ff#
12dd
12b
12gg
12dd
12b
12gg
12cc#
12b
12ff#
12cc#
12a#
=58
4r
12ff#
12dd
12b
12bb
12ff#
12dd
12b
12f#
12d
=59
12b
12f#
12d
12B
12F#
12D
12B
12F#
12D
12BB
12D
12F#
=60
4r
12ff#
12dd
12cc
12ccc
12ff#
12dd
12cc
12f#
12d
=61
12cc
12f#
12d
12c
12F#
12D
12c
12F#
12D
12C
12D
12F#
=62
4r
12gg
12dd
12b
12bb
12gg
12dd
12b
12g
12d
=63
12b
12g
12d
12B
12G
12D
12B
12G
12D
12BB
12D
12G
=64
4r
12dd#
12b
12a
12aa
12dd#
12b
12a
12d#
12B
=65
12a
12d#
12B
12A
12D#
12BB
12A
12D#
12BB
12AA
12BB
12D#
=66
12r
12GG
12BB
12E
12BB
12GG
12G
12BB
12E
12G
12E
12BB
=67
12B
12E
12G
12B
12G
12E
12e
12B
12G
12d#
12A
12F#
=68
12e
12G
12B
12e
12B
12G
12g
12B
12e
12g
12e
12B
=69
12b
12e
12g
12b
12g
12e
12ee
12b
12g
12dd#
12a
12f#
=70
12ee
12g
12e
12cc
12g
12e
12cc
12f
12d
12b
12f
12d
=71
12cc
12e
12c
12a
12e
12c
12a
12e
12c
12f#
12e
12c
=72
12r
12B
12e
12g
12e
12B
12r
12A
12d#
12f#
12d#
12A
=73
12r
12e
12g
12ee
12g
12e
12cc
12f
12d
12b
12f
12d
=74
12r
12c
12e
12cc
12e
12c
12a
12e
12c
12f#
12e
12c
=75
12r
12c#
12e
12g
12e
12c#
12r
12G
12c#
12e
12c#
12G
=76
4r
12d#
12B
12F#
12f#
12d#
12B
12b
12f#
12d#
=77
4r
12g
12e
12B
12e
12B
12G
4r
=78
4r
12d#
12B
12F#
12f#
12d#
12B
12b
12f#
12d#
=79
4r
12g
12e
12B
12e
12B
12G
12B
12G
12E
=80
12BB
12C
12C#
12D
12D#
12E
12E#
12F#
12G
12G#
12A
12A#
=81
12B
12c
12c#
12d
12d#
12e
12e#
12f#
12g
12g#
12a
12a#
=82
12b
12cc
12cc#
12dd
12dd#
12ee
12ee#
12ff#
12gg
12gg#
12aa
12aa#
=83
2bb
*k[f#c#g#d#]
4b
4dd#
=84
2ee
4ee
4ee
=85
4.ff#
8gg#
4aa
4aa
=86
4aa
4aa
4aa
4aa
=87
2aa
16aa
16gg#
16ff#
16ee
16dd#
16cc#
16b
16a
=88
2g#
2d#
=89
4e
2.r
=90
2G#
2D#
=91
4E
4r
2r
=92
2r
16ddd
16ccc#
16bb
16aa
16gg#
16ff#
16ee
16dd
=93
4cc#
4ee
4g#
4ee
=94
2a
16d
16c#
16B
16A
16G#
16F#
16E
16D
=95
16C#
16D
16E
16F#
16G#
16A
16B
16c#
2d
=96
16e
16f#
16g#
16a
16b
16cc#
16dd
16ee
2ff#
=97
8gg#
16ff#
16gg#
4aa
8b
16a#
16b
4ee
=98
4a
4r
2aa
=99
2a
2e#
=100
2f#
2b
=101
2a
8a
8g#
8f#
8g#
=102
4a
4r
4aa
4aa
=103
4a
4a
4e
4e
=104
2f
[2b-
=105
2b-]
8a
8g
8f
8g
=106
2f
2e
=107
2d#
[2d#
=108
2d#]
8r
4b
[8dd#
=109
8dd#]
4ee
4ee
4ee
[8ee
=110
8ee]
4ff#
4gg#
4aa
[8aa
=111
8aa]
4aa
4aa
4aa
8aa
=112
2aa
4aa
4aa
=113
4gg#
4ff#
4ee
4dd#
=114
4cc#
4b
4cc#
4b
=115
4a
4g#
4f#
4e
=116
4d#
4f#
4a
4cc
=117
16d#
16f#
16cc
16dd#
16d#
16f#
16cc
16dd#
16d#
16f#
16a
16dd#
16d#
16f#
16a
16dd#
=118
16d#
16f#
16a
16dd#
16d#
16f#
16a
16dd#
16c
16f#
16a
16cc
16c
16f#
16a
16cc
=119
16c
16f#
16a
16cc
16c
16f#
16a
16cc
16B
16d#
16a
16b
16B
16d#
16a
16b
=120
16B
16d#
16a
16b
16B
16d#
16a
16b
16B
16d#
16a
16b
16B
16d#
16a
16b
=121
2b
8b
8cc#
8dd
8dd#
=122
4ee
4r
8e
8f#
8g
8g#
=123
4a
4r
8ee
8ff#
8gg
8gg#
=124
4aa
4r
8aa
8gg#
8aa
8gg#
=125
4aa
4r
16aa
16gg#
16ff#
16ee
16dd#
16cc#
16b
16a
=126
4g#
4b
4d#
4b
=127
2e
16a
16g#
16f#
16e
16d#
16c#
16B
16A
=128
16G#
16A
16B
16c#
16d#
16e
16f#
16g#
2a
=129
16b
16cc#
16dd#
16ee
16ff#
16gg#
16aa
16bb
2ccc#
=130
4.aa#
16gg##
16aa#
4bb
4bb
=131
4ee
4r
2r
==
*-
